X: 19
T: No_116_Hinata_Dance_Song_(l).krn
N: Derived from No_116_Hinata_Dance_Song_(l).krn
%%abc-version 2.0
%%abcx-abcm2ps-target-version 5.9.1 (29 Sep 2008)
%%abc-creator hum2abc beta
%%abcx-conversion-date 2019/03/15 08:38:45
%%humdrum-veritas 2533555995
%%humdrum-veritas-data 1649207238
%%linebreak <none>
%%barnumbers 0
L: 1/8
M: 2/4
K: Bb clef=bass
[K:clef=bass][M:2/4]z2z3/ C/ ]|:  
B,B,/B,/ F,F,- | 
F,2F, z/ C/ | 
B,B,/B,/ B,C | 
G,G,- G,3/C/ | 
(C/B,/)G,/G,//A,// F,F, | 
F,2F,3/ z/ ||  
[M:3/4](3F,F,C,F,2F, z | 
(3G,F,D,B,,2B,,3/G,/ ||  
[M:2/4]F,3//F,//G,F,2- | 
F,2F, z ||  
[M:3/4](3F,F,C,F,2F, z | 
(3F,F,D,B,,2B,,3/C/ :|]  



